X:2130
T:Statt Up
S:Halling av Sjurgure Garmo
S:Etter Ivar Odnes
Z:[[http://www.bluerose.karenlmyers.org/IncipitsHalling4.html|Karen Myers (#2130)]]
Z:Upptecknad 6/2005
M:4/4
L:1/16
R:Halling
%%MIDI OFF
N:Scordatura
K:D
[A,16D16A16e16] || [K:D][M:2/4]C2>B,2 || SA,2(A,C B,2)B,!4!D | C4 C2C(B, | A,2)A,(C B,2)B,!4!D | [C4D4] "^Fine" [C4D4] |
|: A2(AB c2)(cd | e2)ef g4 | (f2ed) (cdef) | d2ec A4 | A2(AB c2)(cd | e2)ef g4 |
(f2ed) (cdec) | d4 d4 :: F2(FA E2)(EG | F2)(FA E2)(EG |
FG)AB A2A(G | F2)F(D FE)DB, |1 C4 [G,4D4] :|2 [C4D4][C4-D4] | "^D.S. al Fine" C4 C2>(B,2 |]

